tools/download-figma-icons/icons/outlined-medium/diamond.svg

<svg width="24" height="24" viewBox="0 0 24 24" fill="none" xmlns="http://www.w3.org/2000/svg">
<path d="M22.5085 12.0264C22.5013 11.9021 22.4653 11.7812 22.4035 11.6731L19.4023 6.41157C19.3397 6.29376 19.247 6.19476 19.1336 6.12475C19.0202 6.05474 18.8902 6.01623 18.757 6.01319H5.25154C5.11933 6.01266 4.98933 6.04715 4.8747 6.11314C4.76007 6.17914 4.66488 6.27431 4.59877 6.38902L1.59756 11.6506C1.5101 11.8141 1.48605 12.0041 1.53003 12.1843V12.267C1.56535 12.3577 1.61612 12.4416 1.68009 12.515L11.434 23.7898C11.4888 23.852 11.5551 23.903 11.6291 23.9401H11.6967C11.7839 23.9796 11.8785 24 11.9743 24C12.07 24 12.1646 23.9796 12.2519 23.9401H12.3194C12.3935 23.903 12.4597 23.852 12.5145 23.7898L22.2684 12.515C22.4066 12.3879 22.4923 12.2136 22.5085 12.0264ZM8.6129 12.7781H15.3656L12.0043 21.2793L8.6129 12.7781ZM8.79298 11.2748L10.9388 7.5165H13.0697L15.2156 11.2748H8.79298ZM5.68672 7.5165H9.21315L7.06728 11.2748H3.54084L5.68672 7.5165ZM6.99225 12.7781L9.65583 19.4453L3.89349 12.7781H6.99225ZM14.3527 19.4453L17.0163 12.7781H20.1151L14.3527 19.4453ZM16.9413 11.2748L14.7954 7.5165H18.3218L20.4677 11.2748H16.9413Z" fill="black"/>
<path d="M12.0039 4.50993C12.2028 4.50993 12.3936 4.43073 12.5342 4.28977C12.6749 4.14881 12.7539 3.95762 12.7539 3.75827V0.751654C12.7539 0.552303 12.6749 0.361117 12.5342 0.220154C12.3936 0.0791919 12.2028 0 12.0039 0C11.805 0 11.6142 0.0791919 11.4736 0.220154C11.3329 0.361117 11.2539 0.552303 11.2539 0.751654V3.75827C11.2539 3.95762 11.3329 4.14881 11.4736 4.28977C11.6142 4.43073 11.805 4.50993 12.0039 4.50993Z" fill="black"/>
<path d="M15.0056 4.50961C15.1292 4.50897 15.2507 4.47776 15.3594 4.41875C15.468 4.35974 15.5604 4.27476 15.6284 4.17137L17.129 1.9164C17.2266 1.75101 17.2573 1.55445 17.2147 1.3671C17.1722 1.17976 17.0596 1.01585 16.9002 0.909049C16.7407 0.802249 16.5465 0.760667 16.3575 0.792845C16.1684 0.825023 15.9988 0.928516 15.8835 1.08207L14.3829 3.33703C14.3279 3.41937 14.2898 3.51177 14.2706 3.60893C14.2514 3.70609 14.2516 3.80609 14.2711 3.90318C14.2906 4.00027 14.3291 4.09254 14.3844 4.17468C14.4396 4.25682 14.5105 4.32722 14.593 4.38183C14.715 4.46402 14.8585 4.50846 15.0056 4.50961Z" fill="black"/>
<path d="M8.38018 4.17137C8.44815 4.27476 8.54056 4.35974 8.6492 4.41875C8.75785 4.47776 8.87935 4.50897 9.00294 4.50961C9.15002 4.50846 9.29352 4.46402 9.4156 4.38183C9.49808 4.32722 9.56897 4.25682 9.62421 4.17468C9.67944 4.09254 9.71792 4.00027 9.73744 3.90318C9.75697 3.80609 9.75714 3.70609 9.73797 3.60893C9.71879 3.51177 9.68063 3.41937 9.62569 3.33703L8.12508 1.08207C8.00979 0.928516 7.84019 0.825023 7.65111 0.792845C7.46203 0.760667 7.26782 0.802249 7.10839 0.909049C6.94896 1.01585 6.83641 1.17976 6.79385 1.3671C6.7513 1.55445 6.78197 1.75101 6.87957 1.9164L8.38018 4.17137Z" fill="black"/>
</svg>

<svg width="24" height="24" viewBox="0 0 24 24" fill="none" xmlns="http://www.w3.org/2000/svg"><path d="M22.509 12.026a.806.806 0 0 0-.105-.353l-3.002-5.261a.751.751 0 0 0-.645-.399H5.252a.75.75 0 0 0-.653.376l-3.001 5.262a.753.753 0 0 0-.068.533v.083a.84.84 0 0 0 .15.248l9.754 11.275a.646.646 0 0 0 .195.15h.068a.673.673 0 0 0 .555 0h.067a.644.644 0 0 0 .195-.15l9.754-11.275a.752.752 0 0 0 .24-.489Zm-13.896.752h6.753l-3.362 8.501-3.391-8.5Zm.18-1.503 2.146-3.759h2.13l2.147 3.759H8.793ZM5.687 7.516h3.526l-2.146 3.759H3.541l2.146-3.759Zm1.305 5.262 2.664 6.667-5.763-6.667h3.1Zm7.36 6.667 2.664-6.667h3.1l-5.763 6.667Zm2.59-8.17-2.147-3.759h3.527l2.146 3.759H16.94ZM12.004 4.51a.749.749 0 0 0 .75-.752V.752a.752.752 0 0 0-.75-.752.749.749 0 0 0-.75.752v3.006a.752.752 0 0 0 .75.752Zm3.002 0a.75.75 0 0 0 .622-.339l1.501-2.255a.753.753 0 0 0-.771-1.123.75.75 0 0 0-.475.29l-1.5 2.254a.752.752 0 0 0 .21 1.045.749.749 0 0 0 .413.128ZM8.38 4.171a.75.75 0 0 0 .623.339.75.75 0 0 0 .621-.335.752.752 0 0 0 .002-.838l-1.5-2.255a.75.75 0 0 0-1.246.834l1.5 2.255Z" fill="currentColor"/></svg>
